X: 43568
T: Young Dan's
R: jig
M: 6/8
K: Gmajor
d|gdB cAF|AGF G2E|DGB c3|BdB AFD|
B3 cBc|dge faf|gaf gdB|cAF G2:|
A|B2c dBG|GBd gde|=fe=f cA=F|=FAc =fdc|
BAB cBc|dge faf|gaf gdB|cAF G2:|

